X:1
T:Pardoning Grace
T:Bentley DeForest Ackley
T:Pardoning Grace
T:Public Domain
T:Public Domain
C:Bentley DeForest Ackley
Z:Public Domain
%%score ( 1 2 ) ( 3 4 )
L:1/8
M:6/8
K:Bb
V:1 treble 
V:2 treble 
V:3 bass 
V:4 bass 
V:1
 [Fd][Ec][DB] [DF][^C=E][DF] | [Fd][Ge][Fd] [Fd] [Ec]2 | [Ec][EA][EG] [EF][EA][DB] | %3
w: 1.~Sweet- er than all is the|love of the Sav- ior,|Dear- er by far than earth’s|
w: 2.~Won- der- ful thought! how it|fills me with sing- ing!|Je- sus has spok- en, His|
w: 3.~I am con- tent, for I|know He is near me,|Keep- ing me pure by His|
w: 4.~There is a ref- uge be-|yond pain and sor- row!|When He shall call me to|
 [Ec][Fd][Ec] [DB]3 | [Fd][Ec][DB] [DF][^C=E][DF] | [Fd][Ge][Fd] [Fd] [Fc]2 | %6
w: jew- els so rare,|Flood- ing my soul by the|grace of His fa- vor,|
w: word is di- vine;|I can re- joice, for His|mer- cy is bring- ing|
w: won- der- ful grace,|Whis- per- ing words full of|com- fort to cheer me,|
w: dwell with Him there|I shall be- hold, in a|bright- er to- mor- row,|
 [Fc][FA][GB] [Ac][FA][CF] | [=EG][EA][EG] [CF]3 ||"^Refrain" F[FG][FA] [Fe]2 [Fe] | %9
w: Fill- ing my heart with the|spir- it of prayer.||
w: Life that is bless- èd and|sweet in- to mine.||
w: Light- ing my soul with a|glimpse of His face.||
w: Je- sus my king, all His|glo- ry to share.||
 [Ae][Ad][Fc] [Fc] [FB]2 | [GB][DA][DG] ([GB][DB])[DG] | [GB][Gc][G^c] [^Fd]3 | %12
w: |||
w: |||
w: |||
w: |||
 [Fd][Fd][Fd] (cA)[_EG] | [EA][Ed][Ec] [Dc] [DB]2 | [EG][EA][FB] [Gc][Gd][Ge] | [Fd]2 [Ec] [DB]3 |] %16
w: ||||
w: ||||
w: ||||
w: ||||
V:2
 x6 | x6 | x6 | x6 | x6 | x6 | x6 | x6 || F x5 | x6 | x6 | x6 | x3 =E2 x | x6 | x6 | x6 |] %16
V:3
 [B,,B,][B,,B,][B,,B,] [B,,B,][B,,G,][B,,B,] | [B,,B,][B,,B,][B,,B,] [F,B,] [F,A,]2 | %2
w: ~ ~ ~ ~ ~ ~|~ ~ ~ ~ ~|
 [F,A,][F,C][F,B,] [F,A,][F,C][F,B,] | [F,A,][F,B,]F, [B,,F,]3 | %4
w: ~ ~ ~ ~ ~ ~|~ ~ ~ ~|
 [B,,B,][B,,B,][B,,B,] [B,,B,][B,,G,][B,,B,] | [B,,B,][B,,B,][B,,B,] [F,B,] [F,A,]2 | %6
w: ~ ~ ~ ~ ~ ~|~ ~ ~ ~ ~|
 [F,A,][F,C][F,C] [F,F][F,C][F,A,] | [C,B,][C,C][C,B,] [F,A,]3 || %8
w: ~ ~ ~ ~ ~ ~|~ ~ ~ Par-|
 [F,A,][F,B,][F,C] [F,A,]2 [F,A,] | [F,C][F,F][F,E] [B,E] [B,,B,D]2 | [G,D][G,C][G,B,] (DC)[G,B,] | %11
w: don- ing grace the Mas-|ter has spok- en, Par-|don- ing grace has * now|
 [E,B,][E,G,][E,G,] [D,A,]3 | [G,=B,][G,B,][G,B,] [C,_B,]2 [C,C] | %13
w: me whole; On Cal-|v’ry’s brow His poor heart|
 [F,C][F,A,][F,A,] [B,,B,] [B,,B,]2 | [E,B,][E,C][D,B,] [E,B,][D,=B,][C,C] | %15
w: was brok- en— Par- don-|ing grace for my sin sick|
 (F,G,)[F,A,] [B,,F,B,]3 |] %16
w: soul. * * *|
V:4
 x6 | x6 | x6 | x2 F, x3 | x6 | x6 | x6 | x6 || x6 | x6 | x3 G,2 x | x6 | x6 | x6 | x6 | F,2 x4 |] %16
w: |||~|||||||made||||||

